X: 841
M: C|
L: 1/8
K: Dm
|:\
d2 Af e3 A | df ed ^c3 =B |\
a2 f/g/a g3 g | af f/g/a g3 f |
eg dg cg Bg | Af ge f4 |\
af f/g/a b3 a | gfed ^c3 =B |\

